app/[lang]/(home)/(new-home)/assets/ide-icons/qoder.svg

<svg
  width="64"
  height="64"
  viewBox="0 0 64 64"
  fill="none"
  xmlns="http://www.w3.org/2000/svg"
>
  <g opacity="0.7">
    <rect width="64" height="64" rx="12.1808" fill="#111113" />
    <path
      d="M56.1547 36.7656V28.3824C56.1547 23.6196 54.082 19.7975 50.4744 17.8949L31.8417 8.06995L31.7482 8.24831L31.6548 8.42668C35.1266 10.257 37.1183 13.9496 37.1183 18.5574V26.9406C37.1183 27.1933 37.112 27.4587 37.0992 27.7241C37.0971 27.7751 37.0928 27.8261 37.0886 27.8791L37.0801 28.0044C37.0695 28.1722 37.0589 28.3421 37.0419 28.5098C37.0355 28.5778 37.027 28.6478 37.0185 28.7158L36.9994 28.875C36.9824 29.0152 36.9676 29.1532 36.9463 29.2933C36.9357 29.3719 36.923 29.4483 36.9102 29.5269L36.8911 29.648C36.8678 29.7902 36.8444 29.9325 36.8168 30.0747C36.7765 30.2871 36.734 30.4973 36.6873 30.7075L36.6724 30.7691C36.6257 30.9729 36.5747 31.1747 36.5195 31.3764L36.4707 31.5548C36.4133 31.7586 36.3539 31.9624 36.2902 32.1663L36.2328 32.3425C36.1607 32.5655 36.0842 32.7884 36.0035 33.0093C35.9823 33.0687 35.9589 33.1261 35.9356 33.1855L35.8995 33.2811C35.8337 33.4509 35.7679 33.623 35.6978 33.7928C35.6574 33.8926 35.6128 33.9924 35.5703 34.0922L35.5555 34.1283C35.5003 34.2579 35.443 34.3874 35.3835 34.5148C35.3325 34.6294 35.2773 34.742 35.2242 34.8545C35.1627 34.9819 35.1032 35.1072 35.0395 35.2325C34.98 35.3493 34.9206 35.4639 34.859 35.5786C34.7996 35.6911 34.738 35.8058 34.6764 35.9183C34.6127 36.033 34.5469 36.1477 34.4811 36.2623C34.4173 36.3728 34.3537 36.4853 34.2857 36.5936C34.2178 36.7083 34.1477 36.8208 34.0755 36.9333C34.0075 37.0416 33.9417 37.1478 33.8717 37.254C33.7995 37.3665 33.7251 37.4748 33.6402 37.6022C33.5723 37.702 33.5043 37.8018 33.4363 37.8995C33.3641 38.0014 33.2919 38.1012 33.207 38.218C33.1285 38.3263 33.0499 38.4324 32.9692 38.5386C32.8906 38.6427 32.8121 38.7425 32.7314 38.8444C32.6486 38.9484 32.5658 39.0546 32.4829 39.1565C32.4107 39.2457 32.3364 39.3328 32.2621 39.4198L32.2472 39.4368C32.1495 39.5536 32.0498 39.6683 31.9478 39.7829C31.8672 39.8742 31.7865 39.9634 31.7058 40.0526C31.6039 40.1652 31.5019 40.2734 31.3979 40.3839C31.3193 40.4667 31.2386 40.5473 31.1579 40.6302C31.0199 40.7703 30.8798 40.9062 30.7375 41.0421L30.6759 41.1016C30.6249 41.1504 30.5761 41.1971 30.5252 41.246C30.3468 41.4116 30.1663 41.573 29.9816 41.7321L29.9306 41.7767C29.9115 41.7938 29.8903 41.8129 29.8712 41.83L29.7841 41.9022C29.6333 42.0296 29.4805 42.1528 29.3276 42.2759C29.2808 42.3141 29.232 42.35 29.1832 42.3883L29.1471 42.4158C29.0175 42.5158 28.888 42.6134 28.7458 42.7174C28.6863 42.76 28.629 42.8046 28.5695 42.8469C28.4187 42.9553 28.268 43.0593 28.1151 43.1613L27.9962 43.2441C27.7966 43.3757 27.5949 43.5031 27.391 43.6263L27.2615 43.7028C27.1001 43.7984 26.9387 43.8917 26.7753 43.9829C26.7264 44.0108 26.6776 44.0363 26.6287 44.0614L26.5523 44.102C26.4164 44.1741 26.2826 44.2443 26.1467 44.3144C26.0724 44.3503 25.9981 44.3865 25.9238 44.4224L25.8983 44.4352C25.7666 44.4989 25.6371 44.5586 25.5033 44.618C25.4184 44.6563 25.3335 44.6945 25.2464 44.7304C25.1126 44.7878 24.9767 44.8431 24.843 44.8961L24.7708 44.9236C24.7113 44.9471 24.6518 44.9703 24.5924 44.9938C24.4459 45.0491 24.2972 45.0998 24.1486 45.1508L24.0679 45.1786C24.0233 45.1934 23.9787 45.2105 23.9341 45.2253C23.6984 45.3017 23.4797 45.3675 23.2674 45.4269L21.9657 45.7835C21.7725 45.8369 21.5793 45.8855 21.3882 45.9301C21.3521 45.9385 21.3181 45.9449 21.282 45.9513L21.1376 45.9811C21.0293 46.0046 20.9231 46.0278 20.8148 46.0469C20.7703 46.0556 20.7236 46.062 20.679 46.0704L20.5048 46.0999C20.4199 46.115 20.335 46.1298 20.25 46.1405C20.2012 46.1469 20.1524 46.1532 20.1035 46.1573L19.9273 46.1787C19.8487 46.1891 19.7701 46.1979 19.6916 46.2063C19.6597 46.2083 19.6279 46.2106 19.5982 46.2146L19.526 46.221C19.4028 46.2317 19.2796 46.2425 19.1565 46.2485C19.1098 46.2509 19.0652 46.2529 19.0185 46.2529H18.9505C18.8422 46.2593 18.736 46.2636 18.6299 46.2636C18.5789 46.2636 18.5258 46.2636 18.4749 46.2636H18.4112C18.3114 46.2636 18.2094 46.2613 18.1096 46.2572C18.0544 46.2572 17.9992 46.2529 17.944 46.2489H17.8888C17.7848 46.2401 17.6828 46.2338 17.5788 46.2254L17.4429 46.2126C17.3134 46.1999 17.186 46.1871 17.0564 46.17L16.9736 46.1596C16.8229 46.1381 16.6721 46.115 16.5213 46.0871L16.4088 46.066C16.3154 46.0469 16.222 46.0278 16.1285 46.0066C15.982 45.9748 15.8376 45.9385 15.6932 45.8983L15.6316 45.8815C15.604 45.8751 15.5786 45.8664 15.5509 45.86C15.3598 45.805 15.173 45.7456 14.9967 45.6839L14.8651 45.6349C14.7356 45.5883 14.6039 45.5373 14.4765 45.4843C14.4277 45.4631 14.3788 45.4416 14.33 45.4205L14.2981 45.4058C14.1856 45.3568 14.0752 45.3058 13.9648 45.2528L13.9138 45.2273C13.9011 45.2203 13.8912 45.2154 13.8841 45.2125L12.4975 44.4862L13.5019 45.4906H13.5358L32.1241 55.2902C32.1878 55.3241 32.2515 55.3559 32.3173 55.3898C32.3386 55.4006 32.3598 55.4089 32.381 55.4197L32.4214 55.4388C32.536 55.4938 32.6507 55.5472 32.7696 55.5982L32.8036 55.6129C32.8545 55.6341 32.9034 55.6575 32.9543 55.6787C33.0881 55.734 33.2219 55.785 33.3578 55.8357L33.4024 55.8528C33.4257 55.8612 33.447 55.8699 33.4661 55.8783L33.4937 55.8867C33.6806 55.9528 33.8759 56.0142 34.0712 56.0695C34.101 56.0779 34.1307 56.0863 34.1604 56.0927L34.2178 56.1078C34.3664 56.148 34.5193 56.1863 34.6722 56.2202L34.7082 56.2286C34.7274 56.2329 34.7443 56.2373 34.7635 56.2413C34.8081 56.252 34.8548 56.2604 34.9015 56.2691L35.082 56.303C35.237 56.3305 35.392 56.356 35.5491 56.3795L35.6362 56.3899C35.7678 56.407 35.9016 56.4218 36.0354 56.4346L36.2966 56.458C36.3369 56.46 36.3772 56.4624 36.4197 56.4644L36.5216 56.4688C36.5896 56.4728 36.6554 56.4772 36.7255 56.4792C36.821 56.4835 36.9187 56.4835 37.0143 56.4855H37.095C37.1353 56.4855 37.1735 56.4855 37.2139 56.4855C37.2309 56.4855 37.2457 56.4855 37.2627 56.4855C37.3668 56.4855 37.4708 56.4815 37.5961 56.4751H37.664C37.7107 56.4708 37.7596 56.4708 37.8084 56.4664C37.9337 56.4601 38.0611 56.4497 38.1885 56.4389L38.2565 56.4325C38.2905 56.4305 38.3244 56.4282 38.3775 56.4218C38.4518 56.4134 38.5261 56.405 38.6005 56.3963L38.7682 56.3752C38.8234 56.3688 38.8786 56.3624 38.9338 56.354C39.023 56.3413 39.1101 56.3262 39.1992 56.3114L39.3691 56.2839C39.418 56.2755 39.4668 56.2692 39.5157 56.2584C39.6261 56.2373 39.7365 56.2138 39.8469 56.1903L39.9828 56.1628C40.0231 56.1544 40.0635 56.146 40.1038 56.1373C40.3013 56.0927 40.4988 56.0417 40.6984 55.9867L42 55.63C42.2145 55.5703 42.4396 55.5046 42.6838 55.424C42.7305 55.4089 42.7751 55.3942 42.8197 55.3771L42.9046 55.3475C43.0575 55.2945 43.2104 55.2412 43.3611 55.1862C43.4269 55.1627 43.4907 55.1352 43.5543 55.1097L43.6159 55.0842C43.754 55.0288 43.8941 54.9738 44.03 54.9144C44.1171 54.8762 44.2041 54.8379 44.2933 54.7997C44.4292 54.7379 44.563 54.6765 44.6967 54.6128L44.7413 54.5917C44.8114 54.5574 44.8815 54.5236 44.9515 54.4897C45.0917 54.4196 45.2297 54.3474 45.3677 54.2729L45.4442 54.2327C45.4952 54.2052 45.5461 54.1797 45.5949 54.1518C45.7627 54.0606 45.9262 53.9629 46.0918 53.8653L46.1469 53.8334C46.1724 53.8187 46.1979 53.8036 46.2257 53.7888C46.423 53.6701 46.6186 53.5469 46.8118 53.4194L46.9453 53.3282L51.0371 55.1925C53.4282 56.2819 56.146 54.5343 56.146 51.9053V36.7613C56.146 36.7599 56.146 36.7585 56.146 36.7571L56.1547 36.7656Z"
      fill="#2ADB5C"
    />
    <path
      d="M31.8532 8.07799C31.7894 8.04401 31.7257 8.01216 31.6621 7.98031C31.6281 7.96332 31.592 7.94846 31.558 7.93147C31.4433 7.87626 31.3287 7.82318 31.214 7.77222C31.1524 7.74461 31.093 7.71913 31.0293 7.69153C30.8976 7.63632 30.7639 7.58536 30.628 7.53652C30.5919 7.52378 30.5558 7.50679 30.5175 7.49405C30.5091 7.49193 30.5006 7.48768 30.492 7.48556C30.3031 7.41973 30.112 7.35815 29.9187 7.30295C29.8699 7.28808 29.8211 7.27747 29.7722 7.26472C29.6236 7.22438 29.4728 7.18616 29.3221 7.15431C29.2902 7.14794 29.2605 7.13732 29.2307 7.13095C29.1649 7.11609 29.0991 7.10547 29.0333 7.09273C28.9951 7.08424 28.9547 7.07787 28.9165 7.06937C28.7636 7.04177 28.6086 7.01629 28.4515 6.99505C28.4217 6.99081 28.392 6.98868 28.3623 6.98444C28.2306 6.96745 28.1011 6.95259 27.9673 6.93984C27.9206 6.9356 27.8739 6.93135 27.8272 6.9271C27.7868 6.92286 27.7465 6.91861 27.7061 6.91649C27.6403 6.91224 27.5745 6.91012 27.5087 6.90587C27.4322 6.90162 27.3558 6.89738 27.2794 6.89525C27.1774 6.89101 27.0734 6.89101 26.9693 6.88888C26.895 6.88888 26.8186 6.88676 26.7442 6.88888C26.636 6.88888 26.5255 6.89525 26.4151 6.89738C26.3451 6.8995 26.2729 6.90162 26.2028 6.90587C26.0775 6.91224 25.9501 6.92286 25.8248 6.93347C25.7675 6.93772 25.7102 6.94197 25.6528 6.94621C25.6465 6.94621 25.6401 6.94621 25.6358 6.94621C25.5339 6.95683 25.4299 6.9717 25.3258 6.98444C25.243 6.99505 25.1623 7.00355 25.0795 7.01416C24.9627 7.03115 24.8459 7.05238 24.7291 7.0715C24.6527 7.08424 24.5763 7.09485 24.4998 7.10972C24.3682 7.1352 24.2344 7.1628 24.1006 7.19253C24.0369 7.20527 23.9754 7.21801 23.9116 7.23288C23.7142 7.27747 23.5167 7.32843 23.3192 7.38363L22.0176 7.74036C21.7882 7.80407 21.561 7.87202 21.3338 7.94634C21.2595 7.96969 21.1873 7.9973 21.113 8.02278C20.9601 8.07586 20.8072 8.12895 20.6565 8.18416C20.5715 8.21601 20.4866 8.24998 20.3995 8.28396C20.2615 8.33916 20.1235 8.39437 19.9855 8.45383C19.8984 8.49205 19.8092 8.53027 19.7222 8.56849C19.5863 8.63007 19.4525 8.69165 19.3187 8.75535C19.2338 8.79569 19.1489 8.83604 19.0639 8.87851C18.9238 8.94858 18.7857 9.02078 18.6477 9.0951C18.5713 9.13544 18.4948 9.17579 18.4205 9.21613C18.2528 9.30744 18.0893 9.40511 17.9237 9.50279C17.8791 9.52827 17.8345 9.55375 17.7899 9.58136C17.5924 9.70027 17.3971 9.82554 17.2017 9.95295C17.1911 9.95932 17.1805 9.96781 17.1699 9.97418C17.1274 10.0018 17.087 10.0315 17.0467 10.0591C16.8895 10.1653 16.7345 10.2715 16.5817 10.3819C16.518 10.4286 16.4542 10.4753 16.3906 10.5199C16.2568 10.6197 16.123 10.7195 15.9914 10.8214C15.9298 10.8681 15.8682 10.917 15.8087 10.9637C15.6516 11.089 15.4945 11.2164 15.3395 11.3459C15.3097 11.3714 15.28 11.3947 15.2503 11.4181C15.2439 11.4224 15.2376 11.4287 15.2312 11.433C15.1993 11.4606 15.1696 11.4903 15.1377 11.5179C14.9509 11.6793 14.764 11.8449 14.5835 12.0148C14.5092 12.0827 14.4391 12.1528 14.3648 12.2229C14.2204 12.3609 14.0782 12.501 13.9359 12.6433C13.8977 12.6815 13.8595 12.7176 13.8212 12.7558C13.7766 12.8004 13.7363 12.8493 13.6917 12.8938C13.5855 13.0064 13.4794 13.1189 13.3753 13.2336C13.2925 13.3249 13.2097 13.4162 13.1269 13.5075C13.0228 13.6243 12.923 13.7432 12.8211 13.86C12.7701 13.9195 12.7192 13.9768 12.6704 14.0362C12.6406 14.0723 12.6109 14.1106 12.5812 14.1467C12.4941 14.2528 12.4092 14.359 12.3263 14.4673C12.2457 14.5713 12.1629 14.6754 12.0822 14.7794C11.9994 14.8877 11.9187 14.9982 11.838 15.1086C11.787 15.1786 11.7339 15.2466 11.683 15.3188C11.6554 15.357 11.632 15.3952 11.6044 15.4335C11.5301 15.5396 11.4579 15.6479 11.3836 15.7541C11.3071 15.8666 11.2307 15.9791 11.1564 16.0938C11.0863 16.2021 11.0162 16.3125 10.9483 16.4229C10.9016 16.4951 10.8548 16.5673 10.8103 16.6417C10.7848 16.6841 10.7614 16.7287 10.7338 16.7712C10.6659 16.8837 10.6 16.9963 10.5363 17.1109C10.4684 17.2277 10.4026 17.3445 10.3367 17.4634C10.273 17.5781 10.2115 17.6949 10.1499 17.8095C10.1117 17.8817 10.0692 17.9539 10.0331 18.0282C10.0097 18.0728 9.99062 18.1174 9.96727 18.162C9.90144 18.2915 9.83986 18.4211 9.77616 18.5506C9.72095 18.6653 9.66574 18.7799 9.61266 18.8967C9.5532 19.0283 9.49587 19.16 9.43854 19.2917C9.40457 19.3702 9.36634 19.4488 9.33449 19.5295C9.31963 19.5635 9.30689 19.5996 9.29203 19.6357C9.21983 19.8076 9.15401 19.9818 9.08605 20.158C9.04996 20.2514 9.01386 20.3428 8.97989 20.4362C8.89707 20.6612 8.82063 20.8885 8.74631 21.1178C8.73357 21.156 8.71871 21.1942 8.70597 21.2346C8.70597 21.2388 8.70384 21.2452 8.70172 21.2494C8.69535 21.2664 8.6911 21.2855 8.68473 21.3025C8.61891 21.5106 8.55945 21.7187 8.5 21.9268C8.48301 21.9884 8.46602 22.0479 8.45116 22.1094C8.39595 22.3154 8.34286 22.5235 8.29615 22.7316C8.2919 22.7528 8.28553 22.774 8.28129 22.7953C8.23882 22.9779 8.2006 23.1605 8.1645 23.3452C8.15813 23.3792 8.15388 23.411 8.14751 23.445C8.11779 23.5979 8.09443 23.7508 8.06895 23.9058C8.04984 24.0184 8.03073 24.133 8.01374 24.2456C7.99038 24.4069 7.97339 24.5683 7.95428 24.7297C7.94154 24.8359 7.92668 24.942 7.91819 25.0482C7.9012 25.2266 7.88846 25.407 7.87784 25.5875C7.87147 25.6767 7.86298 25.7638 7.85873 25.853C7.85024 26.1141 7.84387 26.3838 7.84387 26.6514V35.0345C7.84387 38.0901 8.71022 40.6996 10.1966 42.666C10.3452 42.8636 10.5002 43.0525 10.6595 43.2373C10.9016 43.5134 11.1543 43.7744 11.4218 44.0187C12.044 44.5897 12.7362 45.0782 13.4858 45.4731L32.1186 55.2961C28.6957 53.4911 26.4788 49.7476 26.4767 44.8574V36.4742C26.4767 36.2067 26.4831 35.937 26.4958 35.6694C26.5001 35.5803 26.5086 35.4932 26.5149 35.404C26.5277 35.2235 26.5383 35.0452 26.5553 34.8647C26.5659 34.7585 26.5808 34.6523 26.5914 34.5462C26.6105 34.3848 26.6275 34.2234 26.6508 34.062C26.6678 33.9495 26.6869 33.8348 26.706 33.7223C26.7315 33.5694 26.757 33.4144 26.7846 33.2615C26.825 33.0449 26.8695 32.8283 26.9184 32.6139C26.9226 32.5926 26.929 32.5714 26.9332 32.5502C26.9821 32.3421 27.033 32.134 27.0883 31.928C27.1052 31.8686 27.1201 31.807 27.1371 31.7475C27.1944 31.5394 27.256 31.3292 27.3218 31.1233C27.3282 31.1063 27.3324 31.0872 27.3388 31.0702C27.3516 31.0277 27.3685 30.9831 27.3834 30.9406C27.4577 30.7134 27.5342 30.4841 27.617 30.259C27.651 30.1656 27.6871 30.0743 27.7232 29.9809C27.789 29.8067 27.8569 29.6326 27.9291 29.4585C27.9758 29.3438 28.0268 29.2292 28.0756 29.1166C28.133 28.985 28.1903 28.8533 28.2498 28.7217C28.3028 28.6049 28.358 28.4902 28.4132 28.3756C28.4748 28.246 28.5385 28.1165 28.6044 27.987C28.6638 27.8681 28.7254 27.7513 28.787 27.6324C28.8485 27.5156 28.9101 27.4009 28.9738 27.2863C29.0396 27.1674 29.1055 27.0506 29.1734 26.9338C29.2393 26.8212 29.3051 26.7066 29.3709 26.594C29.441 26.4773 29.5132 26.3626 29.5854 26.2479C29.6533 26.1375 29.7234 26.0292 29.7935 25.9188C29.8678 25.8041 29.9442 25.6916 30.0207 25.5791C30.0929 25.4708 30.1651 25.3646 30.2415 25.2584C30.318 25.1501 30.3965 25.0418 30.4751 24.9357C30.5558 24.8252 30.6364 24.7148 30.7193 24.6065C30.8 24.5004 30.8807 24.3984 30.9635 24.2944C31.0484 24.1882 31.1333 24.0799 31.2183 23.9738C31.2968 23.8782 31.3775 23.7826 31.4582 23.6871C31.5601 23.5682 31.6599 23.4493 31.764 23.3325C31.8447 23.2412 31.9275 23.1499 32.0103 23.0586C32.1143 22.9439 32.2205 22.8314 32.3267 22.7188C32.4074 22.6339 32.4881 22.5511 32.5709 22.4683C32.711 22.326 32.8554 22.1858 32.9998 22.0479C33.072 21.9778 33.1442 21.9077 33.2185 21.8397C33.4011 21.6699 33.5859 21.5042 33.7727 21.3429C33.811 21.311 33.847 21.2749 33.8853 21.2431C33.915 21.2176 33.9447 21.1942 33.9744 21.1709C34.1294 21.0414 34.2844 20.9139 34.4437 20.7887C34.5053 20.7398 34.5669 20.6931 34.6285 20.6464C34.7601 20.5445 34.8939 20.4425 35.0276 20.3449C35.0913 20.2982 35.1551 20.2514 35.2187 20.2047C35.3717 20.0943 35.5288 19.986 35.6838 19.882C35.7241 19.8544 35.7645 19.8246 35.8069 19.7991C36.0108 19.6633 36.2167 19.5337 36.4248 19.4063C36.4694 19.3809 36.514 19.3554 36.5565 19.3299C36.7221 19.2322 36.8877 19.1345 37.0555 19.0432C37.1298 19.0008 37.2063 18.9626 37.2827 18.9222C37.4207 18.8479 37.5609 18.7757 37.701 18.7056C37.7859 18.6632 37.8688 18.6228 37.9537 18.5824C38.0875 18.5188 38.2234 18.455 38.3593 18.3935C38.4463 18.3552 38.5334 18.317 38.6204 18.2788C38.7585 18.2194 38.8965 18.1641 39.0366 18.1089C39.1216 18.075 39.2065 18.041 39.2914 18.0091C39.4422 17.9518 39.5951 17.8987 39.748 17.8478C39.8223 17.8223 39.8945 17.7968 39.9688 17.7713C40.196 17.697 40.4232 17.6291 40.6525 17.5653L41.9542 17.2086C42.1538 17.1534 42.3511 17.1046 42.5467 17.06C42.6145 17.0451 42.6802 17.0324 42.7463 17.0175C42.8758 16.9899 43.0053 16.9602 43.1328 16.9368C43.2113 16.922 43.2898 16.9113 43.3683 16.8986C43.4831 16.8795 43.5978 16.8582 43.7122 16.8413C43.7951 16.8285 43.8779 16.8221 43.9608 16.8115C44.0692 16.7988 44.1772 16.7839 44.2856 16.7733C44.3429 16.767 44.3983 16.7648 44.4557 16.7606C44.5828 16.7499 44.7103 16.7393 44.8355 16.733C44.9056 16.7287 44.9757 16.7287 45.0458 16.7245C45.1562 16.7202 45.2666 16.716 45.377 16.7139C45.4534 16.7139 45.5279 16.7139 45.6021 16.7139C45.7061 16.7139 45.8104 16.7138 45.9121 16.7202C45.9886 16.7223 46.0651 16.7266 46.1415 16.7309C46.2476 16.7372 46.3539 16.7436 46.4579 16.7521C46.5046 16.7563 46.5512 16.7606 46.5982 16.7648C46.7297 16.7776 46.8615 16.7924 46.993 16.8094C47.0229 16.8137 47.0524 16.8158 47.0823 16.82C47.2393 16.8413 47.3943 16.8667 47.5473 16.8943C47.5855 16.9007 47.6258 16.9092 47.664 16.9177C47.7617 16.9368 47.8573 16.9581 47.9549 16.9793C48.1056 17.0132 48.2565 17.0515 48.4051 17.0897C48.4538 17.1024 48.5028 17.1152 48.5514 17.1279C48.7447 17.1831 48.9359 17.2426 49.1248 17.3084C49.1718 17.3254 49.216 17.3424 49.263 17.3594C49.3965 17.4082 49.5304 17.4592 49.6623 17.5144C49.7237 17.5398 49.7854 17.5675 49.8468 17.5951C49.9635 17.646 50.0783 17.6991 50.191 17.7543C50.2906 17.8032 50.3883 17.8499 50.4859 17.9008L31.8532 8.07799Z"
      fill="white"
    />
  </g>
</svg>

<svg xmlns="http://www.w3.org/2000/svg" fill="none" viewBox="0 0 64 64">
  <g opacity=".7">
    <rect width="64" height="64" fill="#111113" rx="12.18" />
    <path
      fill="#2ADB5C"
      d="M56.15 36.77v-8.39c0-4.76-2.07-8.58-5.68-10.49L31.84 8.07l-.1.18-.09.18c3.48 1.83 5.47 5.52 5.47 10.13v8.38c0 .25 0 .52-.02.78l-.01.16-.01.12-.04.51-.02.2-.02.16-.05.42-.04.24-.02.12a14.76 14.76 0 0 1-.2 1.06l-.02.06-.15.6-.05.18-.18.62-.06.17-.23.67-.06.18-.04.1-.2.5-.13.3-.01.04-.18.38-.16.34-.18.38a17.93 17.93 0 0 1-.56 1.03l-.2.33-.2.34-.2.32-.24.35a34.1 34.1 0 0 1-.9 1.24c-.1.1-.17.21-.26.32l-.22.26-.01.02-.3.34-.24.27-.31.33-.24.25-.42.41-.06.06-.15.15-.55.48-.05.05-.06.05-.09.07-.45.38-.15.1-.03.04-.4.3-.18.13-.45.31-.12.08-.6.39-.14.07a21.82 21.82 0 0 1-.63.36l-.08.04-.4.21-.23.11-.02.02a13.2 13.2 0 0 1-1.06.46l-.07.02-.18.07-.44.16-.08.03-.14.05-.66.2-1.3.35a14.77 14.77 0 0 1-.69.17l-.14.03-.33.07-.13.02-.18.03a5.09 5.09 0 0 1-.4.06l-.17.02a9.5 9.5 0 0 1-.33.03l-.07.01-.37.03H18.95l-.32.01h-.52l-.17-.01h-.05l-.31-.02-.14-.02-.38-.04-.09-.01-.45-.07-.11-.02-.28-.06-.44-.11-.06-.02-.08-.02c-.19-.05-.38-.11-.55-.18l-.13-.05a8.6 8.6 0 0 1-.4-.15l-.14-.06-.03-.01-.34-.16-.05-.02a.3.3 0 0 0-.03-.02l-1.38-.72 1 1h.04l18.58 9.8.2.1.06.03.04.02a9 9 0 0 0 .35.16l.03.01.15.07.4.16.05.01a1 1 0 0 1 .07.03h.02l.58.19.09.02.06.02.45.11h.04l.05.02.14.03.18.03.47.08.09.01.4.04.26.03h.22l.2.02H37.67l.15-.01.38-.03h.07l.12-.02.22-.02.17-.02.16-.03c.1 0 .18-.02.27-.04l.17-.03.15-.02.33-.07.13-.03.12-.02.6-.15 1.3-.36a14.84 14.84 0 0 0 .82-.25l.08-.03.46-.16.2-.08.06-.03c.13-.05.27-.1.41-.17l.26-.11.4-.19.05-.02.21-.1.42-.22.07-.04c.06-.02.1-.05.15-.08l.5-.28.06-.04.08-.04.58-.37.14-.1 4.09 1.87a3.61 3.61 0 0 0 5.1-3.28V36.76h.01Z"
    />
    <path
      fill="#fff"
      d="m31.85 8.08-.19-.1-.1-.05-.35-.16-.18-.08-.4-.15-.11-.05h-.03l-.57-.19-.15-.04-.45-.1-.09-.03-.2-.04-.11-.02-.47-.07-.09-.02a11.84 11.84 0 0 0-.53-.05l-.12-.01-.2-.01-.23-.01-.31-.01h-.55l-.22.02-.38.02-.17.02h-.01l-.31.03-.25.03-.35.06-.23.04a14.92 14.92 0 0 0-1.18.27l-1.3.36-.69.2-.22.08-.45.16-.26.1-.41.17-.27.12a23.49 23.49 0 0 0-1.07.53l-.23.12-.5.28-.13.08-.59.37-.03.02-.12.09a17.92 17.92 0 0 0-1.06.76l-.18.14-.47.39-.09.07-.02.01-.1.09c-.18.16-.37.32-.55.5l-.22.2-.42.42-.12.12-.13.13a24.21 24.21 0 0 0-.56.62l-.3.35-.16.18-.09.1a12 12 0 0 0-.25.33l-.25.3-.24.34-.16.2c-.02.05-.05.09-.08.12l-.22.32a18.24 18.24 0 0 0-.43.67l-.14.22-.08.13a10.98 10.98 0 0 0-.4.7l-.18.34-.12.22-.06.13-.2.4-.16.34-.17.4-.1.23-.05.1-.2.53-.11.28-.23.68-.04.11v.02l-.03.05-.18.63-.05.18-.15.62-.02.07-.12.55-.01.1-.08.46-.06.34-.06.48-.03.32-.04.54-.02.26-.02.8v8.38a12.5 12.5 0 0 0 2.82 8.2 9.84 9.84 0 0 0 2.83 2.24l18.63 9.83c-3.42-1.8-5.64-5.55-5.64-10.44v-8.39c0-.26 0-.53.02-.8l.01-.27.05-.54.03-.31.06-.49.06-.34.07-.46.14-.65.01-.06.16-.62.05-.18.18-.63.02-.05.04-.13c.08-.23.15-.46.24-.68l.1-.28.2-.52.16-.34.17-.4a16.67 16.67 0 0 1 .35-.73l.19-.36a17.3 17.3 0 0 1 .38-.7l.2-.34.22-.34.2-.33a18.24 18.24 0 0 1 .69-.98l.24-.33.24-.32.26-.32.24-.28.3-.36.25-.27.32-.34a13.74 13.74 0 0 1 .67-.67l.22-.21.55-.5.12-.1.08-.07a20.19 20.19 0 0 1 1.71-1.29l.13-.08a19.13 19.13 0 0 1 1.25-.76l.22-.12a15.75 15.75 0 0 1 1.08-.53l.26-.11.42-.17.25-.1.46-.16.22-.08.68-.2 1.3-.36.6-.15.2-.04.38-.08.24-.04.34-.06.25-.03.33-.04h.17l.38-.04h.2l.34-.02h.22l.31.01a7.98 7.98 0 0 1 .55.03l.14.01.4.05.08.01a10.79 10.79 0 0 1 .58.1l.3.06a15.32 15.32 0 0 1 1.16.33l.14.05a9.34 9.34 0 0 1 .93.4l.3.14-18.64-9.82Z"
    />
  </g>
</svg>
